X:20
T:Blue Moon Of Kentucky
C:Bill Monroe mandolin solo
M:4/4
L:1/8
Q:1/8=300
K:F
[AF]FFF FFFF|[cA][cA][cA][cA] [c2A2]G,/A,/=B,|C2c'2 ag_e=e|c2cc ccc2|
FF2F FF2F|Ac2c c2c2|G,2G,2 =B,D2G|[g8=B8]|
